!!!COM: Bach, Johann Sebastian
!!!CDT: 1685/3//-1750/7/28/
!!!OTL@@DE: Es ist das Heil uns kommen her
!!!AGN: 4-Part Chorale
!!!SCT: BH 290
!!!SCT: BWV 9
**harm	**root	**kern	**kern	**kern	**kern
!	!	!bass	!tenor	!alto	!soprno
*	*Iorgan	*Iorgan	*Iorgan	*Iorgan	*Iorgan
*M4/4	*M4/4	*M4/4	*M4/4	*M4/4	*M4/4
*met(c)	*met(c)	*met(c)	*met(c)	*met(c)	*met(c)
*MM60	*MM60	*MM60	*MM60	*MM60	*MM60
*k[f#c#]	*k[f#c#]	*k[f#c#]	*k[f#c#]	*k[f#c#]	*k[f#c#]
*D:	*D:	*D:	*D:	*D:	*D:
*>[A,A,B]	*>[A,A,B]	*>[A,A,B]	*>[A,A,B]	*>[A,A,B]	*>[A,A,B]
*>A	*>A	*>A	*>A	*>A	*>A
I	4EE	4D	4d	4f#	4a
=1	=1	=1	=1	=1	=1
I	4EE	4D	4A	8e	4a
.	.	.	.	8f#	.
V7b	4BB	4C#	4e	4g	4a
I	8EE	4D	4d	8f#	8a
IVc	8AA	.	.	8g	8b
V7b/IV	4EE	4FF#	4d	4a	4cc
=2	=2	=2	=2	=2	=2
IV	8AA	4GG	8d	8a	4b
iib	8FF#	.	8e	8g	.
-IIIb	8GG	8AA	4f	8c	4a
viio7/-VII	8CC#	8BB	.	8d	.
-VII;	4DD;	4C;	4c;	4e;	4g;
Vb	4BB	4C#	4A	4e	8a
.	.	.	.	.	8g
=3	=3	=3	=3	=3	=3
I	4EE	4.D	8A	4d	8f#
.	.	.	8G	.	8e
I	4EE	.	4F#	4A	8d
.	.	8C#	.	.	8e
vi	4CC#	8BB	4B	4d	4f#
.	.	8C#	.	.	.
V7d/V	4FF#	8D	4E	4B	4g#
.	.	8E	.	.	.
=4	=4	=4	=4	=4	=4
Vb	8BB	8C#	8E	4.e	4a
V	8BB	8AA	8A	.	.
V/V	4FF#	4E	4G#	.	4b
.	.	.	.	8d	.
V;	4BB;	4AA;	4E;	4c#;	4a;
=:|!	=:|!	=:|!	=:|!	=:|!	=:|!
*>B	*>B	*>B	*>B	*>B	*>B
I	4EE	8D	4F#	8d	4a
.	.	8C#	.	8e	.
=5	=5	=5	=5	=5	=5
vi	4CC#	4BB	4B	8f#	4dd
.	.	.	.	8g#	.
V	4BB	4AA	8c#	4a	4cc#
.	.	.	8d	.	.
V/V	4FF#	8E	4e	8g#	4b
.	.	8F#	.	8f#	.
V7d	4BB	8G	4A	4e	4cc#
.	.	8E	.	.	.
!!linebreak: 2
=6	=6	=6	=6	=6	=6
Ib	8EE	8F#	4A	8a	8dd
I7	8EE	8D	.	8f#	8cc#
V/V	4FF#	4E	8e	4g#	4b
.	.	.	8d	.	.
V;	4BB;	4AA;	4c#;	4e;	4a;
I	4EE	8D	4d	8f#	4a
.	.	8E	.	8g	.
=7	=7	=7	=7	=7	=7
Ib	8EE	8F#	8A	8a	4dd
IV	8AA	8G	8B	8g	.
v	4BB	4A	4c	8f#	4a
.	.	.	.	8e	.
V7d/ii	8CC#	8A	8B	8d#	4b
viio7c	8DD#	8G	8c#	8e	.
viib/ii	8EE#	8F#	8d#	8f#	8f#
ii	8FF#	8E	8e	8B	8g
=8	=8	=8	=8	=8	=8
V7b/ii	4CC#	4D#	8f#	8B	4a
.	.	.	8B	8f#	.
ii	4FF#	4E	4B	8f#	4g
.	.	.	.	8e	.
VI;	4CC#;	4BB;	4B;	8e	4f#;
.	.	.	.	8d#;	.
VI	4CC#	8B	4B	4d#	4f#
.	.	8A	.	.	.
=9	=9	=9	=9	=9	=9
iib	8FF#	8G	8B	8e	8e
Ib	8EE	8F#	8A	8d	8f#
viiob	4DD#	4E	4G	8c#	4g
.	.	.	.	8B	.
Ic	8EE	8F#	4d	8A	4f#
IV7	8AA	8G	.	8B	.
V	4BB	4A	8A	4c#	4e
.	.	.	8G	.	.
=10	=10	=10	=10	=10	=10
viioD7d/-VII	4CC#	8A	4F	4d	4B
.	.	8G#	.	.	.
V	4BB	4A	8E	4A	4c#
.	.	.	8G	.	.
I;	4EE;	4D;	4F#;	4A;	4d;
==	==	==	==	==	==
*-	*-	*-	*-	*-	*-
!!chor2scor: -l 2 -s 0.6 -o %b.pmx
!!!YEC: Copyright 1994, David Huron
!!!YEC: Changes/Additions 2001 by Craig Stuart Sapp
!!!YEN: United States of America
!!!SMA: 371 Bach Chorales, edited by Ludwig Erk, C.F. Peters
!!!PDT: 1850, 1865
!!!ONB: Harmony and Root analysis done manually by Craig Sapp
